X:43
T:The Spotted Pony
M:2/4
L:1/16
Z: Jason R. Fruit <Jason R. Fruit@big-mac>
N: From Tony Gilmore, 1953.
K:Bb
DE | F2=EF GFEF | DFBc d2cd | edcB ABcA | B2dc cBGE |
F2=EF GFEF | DFBc d2cd | edcB ABcA | B2d2 B2 :|
|: GA | B2FB dFBd | fBdf b2b2 | afga gf=ef | gf=eg f_edc |
B2FB dFBd | fBdf b2b2 | afga gf=eg | f_ecA B2 :|

